configs/network-logos/zora-dark.svg

<svg width="87" height="24" viewBox="0 0 87 24" fill="none" xmlns="http://www.w3.org/2000/svg">
<g clip-path="url(#clip0_11458_24190)">
<path d="M0 18.1376L8.31267 5.60024H0.936282V2.32628H12.52V5.36214L3.86304 18.3962H12.8615V21.6702H0.00413061V18.134L0.000587423 18.1376H0ZM12.6122 12.1205C12.6122 9.81658 12.9534 7.9177 13.6297 6.42739C14.3095 4.9371 15.1975 3.82422 16.2969 3.09583C17.3932 2.3639 18.7214 2 20.2857 2C22.5496 2 24.3938 2.86772 25.8213 4.60023C27.2453 6.33215 27.9593 8.79954 27.9593 12.0018C27.9593 15.204 27.2045 17.7666 25.6952 19.5873C24.3704 21.1969 22.5704 22 20.2962 22C18.0221 22 16.1987 21.204 14.8731 19.6143C13.3638 17.7936 12.609 15.2957 12.6122 12.1205ZM15.9039 11.9876C15.9039 14.2134 16.327 15.8807 17.1707 16.9935C18.0145 18.1064 19.0592 18.6643 20.3092 18.6643C21.5592 18.6643 22.6075 18.1129 23.4335 17.01C24.2601 15.9077 24.6735 14.2128 24.6735 11.9224C24.6735 9.63198 24.2706 8.02233 23.4648 6.94708C22.6623 5.87537 21.6069 5.33745 20.3058 5.33745C19.0044 5.33745 17.9456 5.8783 17.1294 6.96062C16.3101 8.03938 15.9039 9.71722 15.9039 11.9871V11.9876ZM29.3012 2.32981H36.0249C37.7423 2.32981 38.9722 2.50323 39.7092 2.85009C40.4474 3.19694 41.0518 3.79953 41.5265 4.65726C42.0009 5.515 42.2368 6.54263 42.2368 7.73722C42.2368 9.25161 41.8748 10.4668 41.1508 11.3921C40.4298 12.3175 39.4022 12.8965 38.0674 13.1346C38.7535 13.6249 39.3166 14.1658 39.7642 14.7513C40.2117 15.3369 40.823 16.3851 41.5947 17.8995L43.5174 21.6737H39.7063L37.394 17.4638C36.5639 15.9424 35.9973 14.9894 35.6971 14.6049C35.3965 14.2204 35.0822 13.9582 34.7478 13.8119C34.4129 13.6655 33.8806 13.5943 33.1429 13.5943H32.4839V21.6702H29.3012V2.32981ZM32.4873 10.5073H34.8568C36.305 10.5073 37.227 10.4427 37.6198 10.3169C38.016 10.1875 38.3338 9.93239 38.5797 9.54438C38.8256 9.15637 38.9488 8.64256 38.9488 7.99942C38.9488 7.35626 38.8256 6.89007 38.5797 6.51558C38.3338 6.14108 38.0023 5.88596 37.5785 5.7431C37.2779 5.64786 36.4175 5.5967 34.9866 5.5967H32.4873V10.5073ZM54.9681 21.6696L53.5812 17.2898H47.2466L45.9384 21.6696H42.5441L48.7054 2.32981H52.0897L58.4314 21.6696H54.9681ZM52.5536 14.0159L50.3679 6.83891L48.2236 14.0159H52.5536Z" fill="white"/>
<g clip-path="url(#clip1_11458_24190)">
<path d="M74.3665 23.8699C67.775 23.8699 62.4315 18.5265 62.4315 11.9349C62.4315 5.34345 67.775 0 74.3665 0C80.9579 0 86.3013 5.34345 86.3013 11.9349C86.3013 18.5265 80.9579 23.8699 74.3665 23.8699Z" fill="url(#paint0_radial_11458_24190)"/>
</g>
</g>
<defs>
<radialGradient id="paint0_radial_11458_24190" cx="0" cy="0" r="1" gradientUnits="userSpaceOnUse" gradientTransform="translate(79.7851 6.41772) rotate(180) scale(20.1607)">
<stop offset="0.00682297" stop-color="#F2CEFE"/>
<stop offset="0.1913" stop-color="#AFBAF1"/>
<stop offset="0.4982" stop-color="#4281D3"/>
<stop offset="0.666667" stop-color="#2E427D"/>
<stop offset="0.822917" stop-color="#230101"/>
<stop offset="1" stop-color="#8F6B40"/>
</radialGradient>
<clipPath id="clip0_11458_24190">
<rect width="86.4314" height="24" fill="white"/>
</clipPath>
<clipPath id="clip1_11458_24190">
<rect width="24" height="24" fill="white" transform="translate(62.4314)"/>
</clipPath>
</defs>
</svg>

<svg xmlns="http://www.w3.org/2000/svg" fill="none" viewBox="0 0 87 24">
  <g clip-path="url(#zora-dark_svg__a)">
    <path fill="#fff" d="M0 18.138 8.313 5.6H.936V2.326H12.52v3.036L3.863 18.396h8.998v3.274H.005v-3.536l-.003.004H0Zm12.612-6.018c0-2.303.341-4.202 1.018-5.693.68-1.49 1.567-2.603 2.667-3.331C17.393 2.364 18.72 2 20.286 2c2.264 0 4.108.868 5.535 2.6 1.424 1.732 2.138 4.2 2.138 7.402s-.755 5.765-2.264 7.585C24.37 21.197 22.57 22 20.296 22s-4.097-.796-5.423-2.386c-1.51-1.82-2.264-4.318-2.26-7.494Zm3.292-.132c0 2.225.423 3.893 1.267 5.006.844 1.112 1.888 1.67 3.138 1.67s2.299-.551 3.124-1.654c.827-1.102 1.24-2.797 1.24-5.088 0-2.29-.402-3.9-1.208-4.975-.803-1.072-1.858-1.61-3.16-1.61-1.3 0-2.36.541-3.176 1.624-.819 1.078-1.225 2.756-1.225 5.026ZM29.3 2.33h6.724c1.717 0 2.947.173 3.684.52.738.347 1.343.95 1.817 1.807.475.858.71 1.886.71 3.08 0 1.515-.361 2.73-1.085 3.655-.721.926-1.749 1.505-3.084 1.743a7.878 7.878 0 0 1 1.697 1.616c.448.586 1.059 1.634 1.83 3.149l1.923 3.774h-3.81l-2.313-4.21c-.83-1.522-1.397-2.475-1.697-2.86-.3-.384-.615-.646-.95-.792-.334-.146-.866-.218-1.604-.218h-.66v8.076H29.3V2.33Zm3.186 8.177h2.37c1.448 0 2.37-.064 2.763-.19.396-.13.714-.385.96-.773s.369-.901.369-1.545c0-.643-.123-1.109-.37-1.483a1.88 1.88 0 0 0-1-.773c-.301-.095-1.162-.146-2.592-.146h-2.5v4.91ZM54.968 21.67l-1.387-4.38h-6.334l-1.309 4.38h-3.394l6.161-19.34h3.385l6.341 19.34h-3.463Zm-2.414-7.654-2.186-7.177-2.144 7.177h4.33Z"/>
    <g clip-path="url(#zora-dark_svg__b)">
      <path fill="url(#zora-dark_svg__c)" d="M74.367 23.87c-6.592 0-11.936-5.344-11.936-11.935C62.431 5.343 67.775 0 74.368 0 80.957 0 86.3 5.343 86.3 11.935c0 6.591-5.343 11.935-11.934 11.935Z"/>
    </g>
  </g>
  <defs>
    <clipPath id="zora-dark_svg__a">
      <path fill="#fff" d="M0 0h86.431v24H0z"/>
    </clipPath>
    <clipPath id="zora-dark_svg__b">
      <path fill="#fff" d="M62.431 0h24v24h-24z"/>
    </clipPath>
    <radialGradient id="zora-dark_svg__c" cx="0" cy="0" r="1" gradientTransform="rotate(180 39.893 3.209) scale(20.1607)" gradientUnits="userSpaceOnUse">
      <stop offset=".007" stop-color="#F2CEFE"/>
      <stop offset=".191" stop-color="#AFBAF1"/>
      <stop offset=".498" stop-color="#4281D3"/>
      <stop offset=".667" stop-color="#2E427D"/>
      <stop offset=".823" stop-color="#230101"/>
      <stop offset="1" stop-color="#8F6B40"/>
    </radialGradient>
  </defs>
</svg>
